client/src/assets/rocket.svg

<svg width="53" height="53" viewBox="0 0 53 53" version="1.1" xmlns="http://www.w3.org/2000/svg" xmlns:xlink="http://www.w3.org/1999/xlink">
<title>Group 8</title>
<desc>Created using Figma</desc>
<g id="Canvas" transform="translate(-2608 -4334)">
<g id="Group 8">
<g id="Union">
<use xlink:href="#path0_fill" transform="matrix(0.707107 0.707107 -0.707107 0.707107 2650.66 4329.57)" fill="#D9F5FD"/>
</g>
<g id="Union">
<use xlink:href="#path1_fill" transform="matrix(0.707107 0.707107 -0.707107 0.707107 2650.94 4325.38)" fill="#102B7B"/>
</g>
<g id="Ellipse 3">
<use xlink:href="#path2_fill" transform="matrix(0.707107 0.707107 -0.707107 0.707107 2646.7 4344.82)" fill="#FFFFFF"/>
<use xlink:href="#path3_stroke" transform="matrix(0.707107 0.707107 -0.707107 0.707107 2646.7 4344.82)" fill="#102B7B"/>
</g>
</g>
</g>
<defs>
<path id="path0_fill" fill-rule="evenodd" d="M 12.3238 0.000172633C 9.55112 0.000345267 5.60196 20.7115 5.4875 23.9203C 5.31021 28.894 6.26383 34.4052 7.22557 39.9614C 7.84636 43.548 8.47009 47.1531 8.79499 50.6441L 15.9244 50.6438C 16.2515 46.3833 16.9802 42.3442 17.6794 38.4686C 18.5973 33.3813 19.4643 28.5755 19.3051 23.9203C 19.2006 20.8648 15.0963 0.000172633 12.3238 0.000172633ZM 0.000172633 35.7515L 2.94668 34.068L 4.96701 45.0118L 3.53605 45.0119L 0.757688 47.2006L 0.000172633 35.7515ZM 20.6925 36.4547L 18.407 45.5267L 22.0774 51.8981L 23.0471 50.3746L 23.0473 42.2717L 22.0776 37.6315L 20.6925 36.4547Z"/>
<path id="path1_fill" fill-rule="evenodd" d="M 6.27057 20.6368C 5.72608 23.1534 5.40257 25.0783 5.36959 25.8446C 5.19869 29.734 5.84399 33.9391 6.69801 38.3034C 7.18898 40.5345 7.55202 42.2762 7.85983 43.9654C 8.4896 47.0107 9.0914 50.0701 9.46187 53.0625L 17.1157 53.0625C 17.4764 49.6104 18.121 46.2989 18.7991 43.1128C 19.1188 41.4376 19.5028 39.6436 20.0177 37.3256L 20.162 36.6758L 20.1708 36.6767C 20.9239 32.9157 21.4608 29.3404 21.3132 25.8434C 21.2835 25.1218 20.9518 23.2216 20.3903 20.7096C 19.8337 18.2203 19.0708 15.2128 18.2004 12.295C 17.3307 9.3778 16.3696 6.59684 15.4053 4.53318C 14.9283 3.50964 14.4824 2.71811 14.0394 2.16051C 13.5778 1.57597 13.3111 1.50019 13.2498 1.50001C 13.1883 1.50001 12.924 1.57442 12.4697 2.15239C 12.0322 2.70517 11.5944 3.4903 11.1264 4.50729C 10.1799 6.558 9.24314 9.32324 8.39672 12.2302C 7.5503 15.1379 6.81039 18.14 6.27057 20.6368ZM 21.6484 36.9323C 22.4061 33.1253 22.9573 29.4086 22.812 25.7816C 22.7755 24.9024 22.4102 22.8694 21.8542 20.3823C 21.2928 17.8722 20.517 14.8142 19.6379 11.8663C 18.7585 8.91807 17.7598 6.03389 16.7643 3.89858C 16.2616 2.82273 15.7273 1.88136 15.2168 1.23105C 14.7241 0.607152 14.0634 2.30094e-13 13.2498 0.000172633C 12.4363 0.000172633 11.779 0.603699 11.2904 1.22553C 10.7848 1.87273 10.2577 2.80926 9.76415 3.87942C 8.7867 6.00247 7.81218 8.8725 6.95661 11.8107C 6.10139 14.7486 5.34905 17.8018 4.80422 20.3195C 4.26422 22.8171 3.91032 24.8656 3.87113 25.7804C 3.72301 29.3011 4.2107 33.0781 4.90918 36.9123C 2.73089 37.6529 0.0365983 40.7263 0.036253 47.9883C 0.0365983 51.3226 0.0222697 53.9602 0.0115664 55.8678L 0.0107033 56.0344L 0.00552427 56.9193C 0.000517901 57.8883 -0.0020716 58.5966 0.00172633 59.0313C 0.00397057 59.2521 0.00828641 59.4225 0.0148465 59.5182C 0.0170907 59.5484 0.0217518 59.5941 0.0264129 59.6247C 0.0302109 59.6471 0.0402236 59.6958 0.0483374 59.7264C 0.0512721 59.7379 0.0923589 59.9012 0.229775 60.0456C 0.319717 60.14 0.521526 60.2959 0.819836 60.2779C 1.0964 60.261 1.26575 60.1041 1.32945 60.0342C 1.44097 59.9123 1.48344 59.7814 1.48896 59.7635C 1.50398 59.7153 1.52056 59.6456 1.52625 59.6116C 1.77485 58.1193 2.29464 55.3325 3.34443 52.9106C 3.86457 51.7013 4.46327 50.6641 5.23925 49.8923C 5.85003 49.2774 6.52123 48.8872 7.27806 48.7733C 7.59173 50.5001 7.86138 52.2116 8.0499 53.8958C 8.09237 54.2753 8.41347 54.5625 8.79533 54.5625L 17.7952 54.5624C 18.1826 54.5624 18.5063 54.267 18.5419 53.8813C 18.7017 52.1457 18.9396 50.4452 19.2231 48.7738C 19.979 48.8879 20.6504 49.2779 21.261 49.8923C 22.0367 50.6641 22.6354 51.7013 23.1555 52.9103C 24.2053 55.3325 24.7247 58.1193 24.9739 59.6117C 24.9795 59.6454 24.9958 59.7155 25.0106 59.7635C 25.0163 59.7813 25.0588 59.9121 25.1705 60.0345C 25.2342 60.1041 25.4034 60.2608 25.6801 60.2776C 25.9788 60.2959 26.18 60.1402 26.2702 60.0459C 26.4077 59.9014 26.4485 59.7378 26.4514 59.7265C 26.4594 59.6958 26.4701 59.6471 26.4733 59.6245C 26.478 59.5943 26.483 59.5485 26.4851 59.5182C 26.4918 59.4223 26.4963 59.2521 26.4982 59.0313C 26.502 58.5966 26.4996 57.8885 26.4944 56.9193L 26.4894 56.0342L 26.4891 55.9365C 26.478 54.0238 26.4633 51.3626 26.4635 47.9885C 26.4637 40.7902 23.816 37.7071 21.6484 36.9323ZM 20.2687 43.4123C 20.4244 42.6821 20.5821 41.9562 20.739 41.2351C 20.8785 40.5936 21.0169 39.9552 21.1531 39.3204C 21.2165 39.025 21.279 38.7298 21.3406 38.4355C 22.7072 39.0756 24.9638 41.3972 24.9637 47.9885C 24.9635 50.0844 24.9692 51.9059 24.9759 53.4432C 24.8389 53.063 24.6914 52.6857 24.5329 52.3166C 23.9746 51.0256 23.2261 49.7502 22.3248 48.8347C 21.575 48.0805 20.6718 47.5163 19.606 47.3171C 19.8095 45.9549 20.0189 44.7214 20.2687 43.4123ZM 5.1885 38.4222L 5.23131 38.6162C 5.30054 38.9703 5.3708 39.3247 5.44227 39.6793C 5.65047 40.7134 5.8666 41.7499 6.08291 42.7862L 6.3883 44.2555C 6.57129 45.2623 6.73461 46.2501 6.89412 47.3169C 5.82793 47.5165 4.92472 48.0807 4.17549 48.8347C 3.27365 49.7504 2.52528 51.0256 1.96716 52.3164C 1.80834 52.6858 1.66091 53.0632 1.52401 53.4432C 1.53074 51.9055 1.53644 50.0844 1.53661 47.9885C 1.53661 41.3497 3.82504 39.0426 5.1885 38.4222Z"/>
<path id="path2_fill" d="M 5 2.5C 5 3.88071 3.88071 5 2.5 5C 1.11929 5 0 3.88071 0 2.5C 0 1.11929 1.11929 0 2.5 0C 3.88071 0 5 1.11929 5 2.5Z"/>
<path id="path3_stroke" d="M 4.25 2.5C 4.25 3.4665 3.4665 4.25 2.5 4.25L 2.5 5.75C 4.29493 5.75 5.75 4.29493 5.75 2.5L 4.25 2.5ZM 2.5 4.25C 1.5335 4.25 0.75 3.4665 0.75 2.5L -0.75 2.5C -0.75 4.29493 0.705075 5.75 2.5 5.75L 2.5 4.25ZM 0.75 2.5C 0.75 1.5335 1.5335 0.75 2.5 0.75L 2.5 -0.75C 0.705075 -0.75 -0.75 0.705075 -0.75 2.5L 0.75 2.5ZM 2.5 0.75C 3.4665 0.75 4.25 1.5335 4.25 2.5L 5.75 2.5C 5.75 0.705075 4.29493 -0.75 2.5 -0.75L 2.5 0.75Z"/>
</defs>
</svg>

<svg width="53" height="53" xmlns="http://www.w3.org/2000/svg" xmlns:xlink="http://www.w3.org/1999/xlink"><use xlink:href="#path0_fill" transform="rotate(45 26.677 49.28)" fill="#D9F5FD"/><use xlink:href="#path1_fill" transform="rotate(45 31.875 47.523)" fill="#102B7B"/><g transform="rotate(45 6.29 52.125)"><use xlink:href="#path2_fill" fill="#FFF"/><use xlink:href="#path3_stroke" fill="#102B7B"/></g><defs><path id="path0_fill" fill-rule="evenodd" d="M12.324 0C9.55 0 5.602 20.712 5.487 23.92c-.177 4.974.777 10.485 1.739 16.041.62 3.587 1.244 7.192 1.569 10.683h7.13c.326-4.26 1.055-8.3 1.754-12.175.918-5.088 1.785-9.893 1.626-14.549C19.201 20.865 15.096 0 12.324 0zM0 35.752l2.947-1.684 2.02 10.944h-1.43L.756 47.2 0 35.75zm20.692.703l-2.285 9.072 3.67 6.371.97-1.523v-8.103l-.97-4.64-1.385-1.177z"/><path id="path1_fill" fill-rule="evenodd" d="M6.27 20.637c-.544 2.516-.867 4.441-.9 5.208-.171 3.889.474 8.094 1.328 12.458.491 2.232.854 3.973 1.162 5.662.63 3.046 1.231 6.105 1.602 9.097h7.654c.36-3.452 1.005-6.763 1.683-9.95.32-1.674.704-3.468 1.219-5.786l.144-.65h.009c.753-3.76 1.29-7.336 1.142-10.833-.03-.721-.361-2.621-.923-5.133-.556-2.49-1.32-5.497-2.19-8.415-.87-2.917-1.83-5.698-2.795-7.762-.477-1.023-.923-1.815-1.366-2.372-.461-.585-.728-.66-.79-.661-.06 0-.325.074-.78.652-.437.553-.875 1.338-1.343 2.355-.946 2.051-1.883 4.816-2.73 7.723a127.38 127.38 0 00-2.125 8.407zm15.378 16.295c.758-3.807 1.31-7.523 1.164-11.15-.037-.88-.402-2.913-.958-5.4a130.69 130.69 0 00-2.216-8.516c-.88-2.948-1.878-5.832-2.874-7.967-.502-1.076-1.037-2.018-1.547-2.668C14.724.607 14.063 0 13.25.001c-.814 0-1.471.603-1.96 1.225-.505.647-1.032 1.583-1.526 2.653-.977 2.123-1.952 4.994-2.807 7.932a129.59 129.59 0 00-2.153 8.509c-.54 2.497-.894 4.546-.933 5.46-.148 3.521.34 7.298 1.038 11.132-2.178.74-4.872 3.814-4.873 11.076 0 3.335-.014 5.972-.024 7.88l-.001.166-.005.885c-.005.97-.008 1.678-.004 2.112.002.221.006.392.013.487.002.03.007.076.011.107.004.022.014.07.022.101a.753.753 0 001.44.037 1.43 1.43 0 00.038-.151c.249-1.493.769-4.28 1.818-6.701.52-1.21 1.12-2.247 1.895-3.019.611-.615 1.282-1.005 2.04-1.119.313 1.727.582 3.439.77 5.123a.75.75 0 00.746.666h9a.75.75 0 00.747-.68c.16-1.736.398-3.437.681-5.108.756.114 1.427.504 2.038 1.118.776.772 1.374 1.81 1.895 3.018 1.05 2.423 1.569 5.21 1.818 6.702a.773.773 0 00.197.423.753.753 0 001.1.01c.137-.144.177-.307.18-.319a1.208 1.208 0 00.034-.208c.007-.096.011-.266.013-.487.004-.434.002-1.142-.004-2.112l-.005-.885v-.097c-.011-1.913-.026-4.574-.026-7.948 0-7.199-2.647-10.282-4.815-11.057zm-1.38 6.48c.156-.73.314-1.456.471-2.177a707.064 707.064 0 00.602-2.8c1.366.64 3.623 2.962 3.623 9.553 0 2.096.005 3.918.012 5.455-.137-.38-.285-.757-.443-1.126-.558-1.291-1.307-2.567-2.208-3.482-.75-.755-1.653-1.319-2.719-1.518a95.89 95.89 0 01.663-3.905zm-15.08-4.99l.043.194.211 1.063c.208 1.034.425 2.07.64 3.107l.306 1.47c.183 1.006.347 1.994.506 3.06-1.066.2-1.97.765-2.719 1.519-.901.915-1.65 2.19-2.208 3.481-.159.37-.306.747-.443 1.127.007-1.537.012-3.359.013-5.454 0-6.64 2.288-8.946 3.652-9.567z"/><path id="path2_fill" d="M5 2.5a2.5 2.5 0 11-5 0 2.5 2.5 0 015 0z"/><path id="path3_stroke" d="M4.25 2.5A1.75 1.75 0 012.5 4.25v1.5A3.25 3.25 0 005.75 2.5h-1.5zM2.5 4.25A1.75 1.75 0 01.75 2.5h-1.5A3.25 3.25 0 002.5 5.75v-1.5zM.75 2.5c0-.966.784-1.75 1.75-1.75v-1.5A3.25 3.25 0 00-.75 2.5h1.5zM2.5.75c.966 0 1.75.784 1.75 1.75h1.5A3.25 3.25 0 002.5-.75v1.5z"/></defs></svg>
